X:883
T:Reel 883
M:4/4
K:Amaj
L:1/8
ED|CB,A,A  (3FGA EC|DFEC DB,B,D|CA,A,B, CDEd|cABG AGED|CA,A,C EDB,C|DB,GB, DFED|CA,A,G  (3FGA EC|DFEC A,2|DB,|CAEC FDEC|DFFB, GFED|CA,ED CA,EC|DFEC A,2A,D|CA,EC CB,A,C|DFED B,A,B,D|CA,A,C DB,GA|GEFG A2|
